src/pos-icons/vector-rectangle.svg

<svg height="24" viewBox="0 0 24 24" width="24" xmlns="http://www.w3.org/2000/svg"><path d="m2 4h6v2h8v-2h6v6h-2v4h2v6h-6v-2h-8v2h-6v-6h2v-4h-2zm14 6v-2h-8v2h-2v4h2v2h8v-2h2v-4zm-12-4v2h2v-2zm14 0v2h2v-2zm-14 10v2h2v-2zm14 0v2h2v-2z"/></svg>

<?xml version="1.0" encoding="UTF-8"?><!DOCTYPE svg PUBLIC "-//W3C//DTD SVG 1.1//EN" "http://www.w3.org/Graphics/SVG/1.1/DTD/svg11.dtd"><svg xmlns="http://www.w3.org/2000/svg" xmlns:xlink="http://www.w3.org/1999/xlink" version="1.1" id="mdi-vector-rectangle" width="24" height="24" viewBox="0 0 24 24"><path d="M2,4H8V6H16V4H22V10H20V14H22V20H16V18H8V20H2V14H4V10H2V4M16,10V8H8V10H6V14H8V16H16V14H18V10H16M4,6V8H6V6H4M18,6V8H20V6H18M4,16V18H6V16H4M18,16V18H20V16H18Z" /></svg>
